static/images/no-result-found.svg

<svg xmlns="http://www.w3.org/2000/svg" width="534" height="371" viewBox="0 0 534 371">
    <g fill="none">
        <circle cx="101.5" cy="49.5" r="30.5" fill="#DFF3E5"/>
        <path fill="#F5F5F5" d="M249 163.762C249 235.835 206.243 261 153.5 261S58 235.835 58 163.762C58 91.688 153.5 0 153.5 0S249 91.688 249 163.762z"/>
        <path fill="#424242" d="M150.352 249.414L151.329 189.231 192 114.775 151.482 179.79 151.922 152.729 179.952 98.861 152.038 145.568 152.038 145.568 152.828 96.897 182.844 54.012 152.952 89.244 153.446 0 150.343 118.143 150.598 113.269 120.081 66.527 150.109 122.625 147.266 176.981 147.181 175.539 112 126.349 147.074 180.635 146.719 187.433 146.655 187.535 146.684 188.093 139.47 326 149.109 326 150.265 254.768 185.253 200.615z"/>
        <path fill="#F5F5F5" d="M534 193.272C534 252.366 499.078 273 456 273s-78-20.634-78-79.728C378 134.178 456 59 456 59s78 75.177 78 134.272z"/>
        <path fill="#424242" d="M452.64 263.275L453.446 213.984 487 153.003 453.573 206.251 453.935 184.088 477.061 139.969 454.031 178.222 454.031 178.222 454.683 138.361 479.446 103.237 454.785 132.093 455.193 59 452.633 155.761 452.844 151.77 427.667 113.487 452.44 159.432 450.094 203.951 450.024 202.769 421 162.482 449.936 206.944 449.643 212.511 449.59 212.595 449.614 213.052 443.663 326 451.615 326 452.569 267.66 481.434 223.308z"/>
        <ellipse cx="264.5" cy="324.5" fill="#424242" rx="264.5" ry="13.5"/>
        <ellipse cx="424.5" cy="346" fill="#424242" rx="45.5" ry="2"/>
        <ellipse cx="261.5" cy="369" fill="#424242" rx="45.5" ry="2"/>
        <ellipse cx="137" cy="350.5" fill="#424242" rx="103" ry="5.5"/>
        <path fill="#2F2E41" d="M51.494 299.731L62.926 299.731 62.927 320.236 51.494 320.236z" transform="rotate(.675 57.21 309.984)"/>
        <ellipse cx="60.903" cy="320.042" fill="#2F2E41" rx="3.576" ry="9.527" transform="rotate(-89.325 60.903 320.042)"/>
        <circle cx="47" cy="260" r="13" fill="#FFF"/>
        <path fill="#27B043" d="M104 291.607C104 317.84 88.33 327 69 327c-.448 0-.895-.005-1.341-.015-.896-.019-1.783-.061-2.66-.12C47.555 325.634 34 316.004 34 291.606c0-25.25 32.42-57.11 34.855-59.467l.004-.004L69 232s35 33.373 35 59.607z"/>
        <path fill="#424242" d="M67.382 322.001l13.087-17.805-13.12 19.76-.035 2.044c-.915-.02-1.822-.062-2.718-.121l1.41-26.25-.01-.204.023-.038.133-2.48L53 277.1l13.194 17.949.03.526 1.066-19.833-11.26-20.469 11.398 16.987 1.11-41.119.004-.14v.136l-.186 32.425 11.21-12.855-11.255 15.648-.297 17.758 10.467-17.042-10.51 19.655-.166 9.872L83 272.877l-15.252 27.165-.366 21.959z"/>
        <path fill="#2F2E41" d="M334.442 300.799L345.876 300.796 345.87 321.299 334.436 321.303z" transform="rotate(-17.083 340.156 311.05)"/>
        <path fill="#2F2E41" d="M356.298 294.078L367.732 294.074 367.726 314.578 356.292 314.581z" transform="rotate(-17.083 362.012 304.328)"/>
        <ellipse cx="346.878" cy="319.957" fill="#2F2E41" rx="9.528" ry="3.576" transform="rotate(-17.083 346.878 319.957)"/>
        <ellipse cx="368.594" cy="312.777" fill="#2F2E41" rx="9.528" ry="3.576" transform="rotate(-17.083 368.594 312.777)"/>
        <circle cx="338" cy="260" r="13" fill="#FFF"/>
        <path fill="#27B043" d="M272 286.587C272 310.612 257.674 319 240 319c-.41 0-.818-.005-1.226-.014-.82-.017-1.63-.056-2.432-.11C220.392 317.75 208 308.93 208 286.587c0-23.123 29.64-52.3 31.867-54.459l.004-.004L240 232s32 30.563 32 54.587z"/>
        <path fill="#424242" d="M238.944 315.338l11.778-16.305-11.808 18.095-.031 1.872c-.824-.017-1.64-.056-2.447-.11l1.27-24.04-.01-.187.021-.035.12-2.27L226 274.216l11.874 16.437.028.483.96-18.164-10.135-18.745 10.258 15.557.999-37.657.004-.128v.124l-.167 29.695 10.089-11.772-10.13 14.33-.267 16.263 9.42-15.608-9.46 18-.149 9.041L253 270.351l-13.727 24.877-.33 20.11z"/>
        <path fill="#27B043" d="M398 295.607C398 321.84 382.33 331 363 331c-.448 0-.895-.005-1.341-.015-.896-.019-1.783-.061-2.66-.12-17.445-1.23-30.999-10.86-30.999-35.258 0-25.25 32.42-57.11 34.855-59.467l.004-.004L363 236s35 33.373 35 59.607z"/>
        <path fill="#424242" d="M361.382 327.001l13.087-17.805-13.12 19.76-.035 2.044c-.915-.02-1.822-.062-2.718-.121l1.41-26.25-.01-.204.023-.038.133-2.48L347 282.1l13.194 17.949.03.526 1.066-19.833-11.26-20.469 11.398 16.987 1.11-41.119.004-.14v.136l-.186 32.425 11.21-12.855-11.255 15.648-.297 17.758 10.467-17.042-10.51 19.655-.166 9.872L377 277.877l-15.252 27.165-.366 21.959z"/>
    </g>
</svg>

<svg width="534" height="371" viewBox="0 0 534 371" fill="none" xmlns="http://www.w3.org/2000/svg">
    <path d="M101.5 80C118.345 80 132 66.3447 132 49.5C132 32.6553 118.345 19 101.5 19C84.6553 19 71 32.6553 71 49.5C71 66.3447 84.6553 80 101.5 80Z" fill="#DFE7F3" />
    <path d="M249 163.762C249 235.835 206.243 261 153.5 261C100.757 261 58 235.835 58 163.762C58 91.6884 153.5 0 153.5 0C153.5 0 249 91.6884 249 163.762Z" fill="#F5F5F5" />
    <path d="M150.352 249.414L151.329 189.231L192 114.775L151.482 179.79L151.922 152.729L179.952 98.8611L152.038 145.568L152.828 96.8973L182.844 54.0118L152.952 89.2438L153.446 0L150.343 118.143L150.598 113.269L120.081 66.5268L150.109 122.625L147.266 176.981L147.181 175.539L112 126.349L147.074 180.635L146.719 187.433L146.655 187.535L146.684 188.094L139.47 326H149.109L150.265 254.768L185.253 200.615L150.352 249.414Z" fill="#424242" />
    <path d="M534 193.272C534 252.366 499.078 273 456 273C412.922 273 378 252.366 378 193.272C378 134.178 456 59 456 59C456 59 534 134.177 534 193.272Z" fill="#F5F5F5" />
    <path d="M452.64 263.275L453.446 213.984L487 153.003L453.573 206.251L453.935 184.088L477.061 139.969L454.031 178.222L454.683 138.361L479.446 103.237L454.785 132.093L455.193 59L452.633 155.761L452.844 151.77L427.667 113.487L452.44 159.432L450.094 203.951L450.024 202.769L421 162.482L449.936 206.944L449.643 212.511L449.59 212.595L449.614 213.052L443.663 326H451.615L452.569 267.66L481.434 223.308L452.64 263.275Z" fill="#424242" />
    <path d="M264.5 338C410.579 338 529 331.956 529 324.5C529 317.044 410.579 311 264.5 311C118.421 311 0 317.044 0 324.5C0 331.956 118.421 338 264.5 338Z" fill="#424242" />
    <path d="M424.5 348C449.629 348 470 347.105 470 346C470 344.895 449.629 344 424.5 344C399.371 344 379 344.895 379 346C379 347.105 399.371 348 424.5 348Z" fill="#424242" />
    <path d="M261.5 371C286.629 371 307 370.105 307 369C307 367.895 286.629 367 261.5 367C236.371 367 216 367.895 216 369C216 370.105 236.371 371 261.5 371Z" fill="#424242" />
    <path d="M137 356C193.885 356 240 353.538 240 350.5C240 347.462 193.885 345 137 345C80.1147 345 34 347.462 34 350.5C34 353.538 80.1147 356 137 356Z" fill="#424242" />
    <path d="M51.6148 299.664L63.0467 299.799L62.8053 320.303L51.3735 320.168L51.6148 299.664Z" fill="#2F2E41" />
    <path d="M70.4293 320.154C70.4526 318.179 66.2063 316.528 60.9449 316.466C55.6835 316.404 51.3995 317.955 51.3762 319.93C51.353 321.905 55.5993 323.556 60.8607 323.618C66.1221 323.68 70.4061 322.13 70.4293 320.154Z" fill="#2F2E41" />
    <path d="M47 273C54.1797 273 60 267.18 60 260C60 252.82 54.1797 247 47 247C39.8203 247 34 252.82 34 260C34 267.18 39.8203 273 47 273Z" fill="white" />
    <path d="M104 291.607C104 317.84 88.3307 327 69 327C68.5522 327 68.1051 326.995 67.6587 326.985C66.7631 326.966 65.8759 326.924 64.9995 326.864C47.5539 325.635 34 316.004 34 291.607C34 266.358 66.4197 234.498 68.855 232.14L68.8592 232.136C68.9531 232.045 69 232 69 232C69 232 104 265.373 104 291.607Z" fill="#275CB0" />
    <path d="M67.382 322.001L80.4689 304.196L67.3492 323.956L67.3144 326C66.3987 325.981 65.4918 325.938 64.5958 325.879L66.0063 299.629L65.9954 299.425L66.0194 299.387L66.1524 296.907L53 277.099L66.1938 295.048L66.2243 295.574L67.2904 275.741L56.0303 255.272L67.4277 272.259L68.5374 231.14L68.5417 231V231.136L68.3564 263.561L79.5664 250.706L68.3107 266.354L68.0142 284.112L78.4807 267.07L67.9706 286.725L67.8049 296.597L83 272.877L67.7482 300.042L67.382 322.001Z" fill="#424242" />
    <path d="M331.683 302.93L342.612 299.568L348.629 319.169L337.701 322.531L331.683 302.93Z" fill="#2F2E41" />
    <path d="M353.539 296.208L364.468 292.846L370.485 312.447L359.557 315.809L353.539 296.208Z" fill="#2F2E41" />
    <path d="M347.927 323.375C352.957 321.828 356.564 319.043 355.984 317.155C355.405 315.267 350.858 314.991 345.828 316.538C340.799 318.085 337.191 320.87 337.771 322.758C338.35 324.647 342.898 324.923 347.927 323.375Z" fill="#2F2E41" />
    <path d="M369.644 316.196C374.673 314.648 378.281 311.863 377.701 309.975C377.121 308.087 372.574 307.811 367.545 309.358C362.515 310.905 358.908 313.69 359.487 315.579C360.067 317.467 364.614 317.743 369.644 316.196Z" fill="#2F2E41" />
    <path d="M338 273C345.18 273 351 267.18 351 260C351 252.82 345.18 247 338 247C330.82 247 325 252.82 325 260C325 267.18 330.82 273 338 273Z" fill="white" />
    <path d="M272 286.587C272 310.612 257.674 319 240 319C239.591 319 239.182 318.995 238.774 318.986C237.955 318.969 237.144 318.93 236.342 318.876C220.392 317.75 208 308.93 208 286.587C208 263.464 237.641 234.288 239.867 232.128L239.871 232.124C239.957 232.041 240 232 240 232C240 232 272 262.563 272 286.587Z" fill="#275CB0" />
    <path d="M238.944 315.338L250.722 299.033L238.914 317.128L238.883 319C238.059 318.982 237.243 318.944 236.436 318.889L237.706 294.849L237.696 294.663L237.717 294.628L237.837 292.357L226 274.217L237.874 290.654L237.902 291.137L238.861 272.973L228.727 254.228L238.985 269.785L239.984 232.128L239.988 232V232.124L239.821 261.819L249.91 250.047L239.78 264.377L239.513 280.64L248.933 265.032L239.474 283.033L239.324 292.073L253 270.351L239.273 295.228L238.944 315.338Z" fill="#424242" />
    <path d="M398 295.607C398 321.84 382.331 331 363 331C362.552 331 362.105 330.995 361.659 330.985C360.763 330.966 359.876 330.924 359 330.864C341.554 329.635 328 320.004 328 295.607C328 270.358 360.42 238.498 362.855 236.14L362.859 236.136C362.953 236.045 363 236 363 236C363 236 398 269.373 398 295.607Z" fill="#275CB0" />
    <path d="M361.382 327.001L374.469 309.196L361.349 328.956L361.314 331C360.399 330.981 359.492 330.938 358.596 330.879L360.006 304.629L359.995 304.425L360.019 304.387L360.152 301.907L347 282.099L360.194 300.048L360.224 300.574L361.29 280.741L350.03 260.272L361.428 277.259L362.537 236.14L362.542 236V236.136L362.356 268.561L373.566 255.706L362.311 271.354L362.014 289.112L372.481 272.07L361.971 291.725L361.805 301.597L377 277.877L361.748 305.042L361.382 327.001Z" fill="#424242" />
</svg>
